public/logotipo.svg

<svg width="153" height="28" viewBox="0 0 153 28" fill="none" xmlns="http://www.w3.org/2000/svg">
<path d="M15.0572 27.4485H10.1418L0.653809 0.433838H5.45549L12.8854 22.7402H15.3253L22.7162 0.433838H24.5843L15.0572 27.4485Z" fill="#004A3C"/>
<path d="M30.4484 15.9113C30.4484 18.8216 32.1004 23.2914 40.1443 23.2914C48.1883 23.2914 50.5567 19.4977 50.5567 15.9113H30.45H30.4484ZM52.8129 14.0918C52.8129 21.5755 47.8001 27.447 39.9234 27.447C33.5883 27.447 28.3546 23.5497 28.3546 14.5064V12.0124H50.6655C50.6655 7.85512 47.7465 4.7886 39.9234 4.58131C34.1942 4.68496 30.6693 6.03725 30.6693 9.15477H28.5202C28.5202 4.68496 33.0929 0.424072 39.9234 0.424072C48.8478 0.424072 52.8129 6.55547 52.8129 14.0918Z" fill="#004A3C"/>
<path d="M68.0527 12.1765H75.8643V5.14196H68.0527C61.6883 5.14196 59.1364 5.48908 59.1364 8.49967C59.1364 11.5103 61.7663 12.1765 68.0527 12.1765ZM57.6875 8.38286C57.6875 0.895879 61.4642 0.152281 67.7847 0.433598H77.4254V27.4483H75.8627V16.6431H67.7847C67.0602 16.6431 66.3373 16.6052 65.6892 16.5279L60.5838 27.4499H58.0692L63.3273 16.1035C59.2891 14.9074 57.6875 12.012 57.6875 8.38451" fill="#004A3C"/>
<path d="M92.3406 0.433776C98.7812 0.433776 103.086 3.38185 103.086 8.5673C103.086 18.3805 84.4525 14.9109 84.4525 20.2461C84.4525 21.776 85.9015 23.0066 91.9588 23.0066C97.407 23.0066 100.571 21.9241 100.571 19.9467H101.981C101.981 24.7225 97.4086 27.4468 92.0741 27.4468C87.0434 27.4468 82.9289 24.9462 82.8915 20.432C82.8541 9.90972 101.525 14.2002 101.525 8.41759C101.525 6.17857 99.2393 4.87233 92.5696 4.87233C85.8999 4.87233 83.6144 7.26106 83.6144 9.57412H82.167C82.167 4.68644 85.7488 0.432129 92.3406 0.432129" fill="#004A3C"/>
<path d="M107.259 18.0696V0.433838H108.822V16.8588C108.822 20.8318 110.155 22.7632 117.472 22.7632C124.788 22.7632 126.084 20.8334 126.084 16.8588V0.433838H127.647V18.0696C127.647 23.8226 124.866 27.4551 117.473 27.4551C110.081 27.4551 107.261 23.8226 107.261 18.0696" fill="#004A3C"/>
<path d="M142.536 27.4486C136.097 27.4486 131.79 24.5005 131.79 19.3151C131.79 9.50185 150.424 12.9714 150.424 7.63628C150.424 6.10631 148.976 4.87575 142.917 4.87575C137.469 4.87575 134.305 5.95825 134.305 7.93569H132.895C132.895 3.15988 137.468 0.435547 142.802 0.435547C147.833 0.435547 151.947 2.93614 151.986 7.45038C152.024 17.9726 133.353 13.6821 133.353 19.4648C133.353 21.7038 135.639 23.01 142.308 23.01C148.978 23.01 151.264 20.6213 151.264 18.3082H152.712C152.712 23.1959 149.131 27.4502 142.539 27.4502" fill="#004A3C"/>
</svg>

<svg xmlns="http://www.w3.org/2000/svg" width="153" height="28" fill="none" viewBox="0 0 153 28"><path fill="#004A3C" d="M15.057 27.448h-4.915L.654.434h4.801l7.43 22.306h2.44L22.716.434h1.868l-9.527 27.014ZM30.448 15.911c0 2.91 1.652 7.38 9.696 7.38s10.413-3.793 10.413-7.38H30.448Zm22.365-1.82c0 7.485-5.013 13.356-12.89 13.356-6.335 0-11.568-3.897-11.568-12.94v-2.495h22.31c0-4.157-2.919-7.223-10.742-7.43-5.729.103-9.254 1.455-9.254 4.573H28.52c0-4.47 4.573-8.73 11.403-8.73 8.925 0 12.89 6.13 12.89 13.667ZM68.053 12.177h7.811V5.142h-7.811c-6.365 0-8.917.347-8.917 3.358 0 3.01 2.63 3.677 8.917 3.677ZM57.688 8.383c0-7.487 3.776-8.23 10.097-7.95h9.64v27.015h-1.562V16.643h-8.078c-.725 0-1.448-.038-2.096-.115L60.584 27.45h-2.515l5.258-11.346c-4.038-1.197-5.64-4.092-5.64-7.72M92.34.434c6.441 0 10.746 2.948 10.746 8.133 0 9.814-18.633 6.344-18.633 11.68 0 1.529 1.448 2.76 7.506 2.76 5.448 0 8.612-1.083 8.612-3.06h1.41c0 4.776-4.572 7.5-9.907 7.5-5.03 0-9.145-2.5-9.183-7.015-.037-10.522 18.634-6.232 18.634-12.014 0-2.24-2.286-3.546-8.955-3.546-6.67 0-8.956 2.39-8.956 4.702h-1.447c0-4.888 3.582-9.142 10.174-9.142M107.259 18.07V.434h1.563v16.425c0 3.973 1.333 5.904 8.65 5.904 7.316 0 8.612-1.93 8.612-5.904V.434h1.563V18.07c0 5.753-2.781 9.385-10.174 9.385-7.392 0-10.212-3.632-10.212-9.385M142.536 27.449c-6.439 0-10.746-2.949-10.746-8.134 0-9.813 18.634-6.344 18.634-11.679 0-1.53-1.448-2.76-7.507-2.76-5.448 0-8.612 1.082-8.612 3.06h-1.41c0-4.776 4.573-7.5 9.907-7.5 5.031 0 9.145 2.5 9.184 7.014.038 10.523-18.633 6.232-18.633 12.015 0 2.239 2.286 3.545 8.955 3.545 6.67 0 8.956-2.389 8.956-4.702h1.448c0 4.888-3.581 9.142-10.173 9.142"/></svg>
